public/icons/assignment_black.svg

<svg id="Layer_1" data-name="Layer 1" xmlns="http://www.w3.org/2000/svg" viewBox="0 0 24 24"><defs><style>.cls-2{fill:#766efe}</style></defs><path d="M0 0h24v24H0z" fill="none"/><path d="M7 15h7v2H7zm0-4h10v2H7zm0-4h10v2H7zm12-4h-4.18a3 3 0 00-5.64 0H5a1.75 1.75 0 00-.4 0 2 2 0 00-1.44 1.23A1.93 1.93 0 003 5v14a2.05 2.05 0 00.16.78 2.12 2.12 0 00.43.64 2 2 0 001 .55A2.6 2.6 0 005 21h14a2 2 0 002-2V5a2 2 0 00-2-2zm-7-.25a.75.75 0 11-.75.75.76.76 0 01.75-.75zM19 19H5V5h14z"/><path class="cls-2" d="M7 7h10v2H7zM7 11h10v2H7zM7 15h7.07v2H7z"/></svg>

<svg id="Layer_1" data-name="Layer 1" xmlns="http://www.w3.org/2000/svg" viewBox="0 0 24 24"><defs><style>.cls-1{fill:none;}.cls-2{fill:#766efe;}</style></defs><path class="cls-1" d="M0,0H24V24H0Z"/><path d="M7,15h7v2H7Zm0-4H17v2H7ZM7,7H17V9H7ZM19,3H14.82A3,3,0,0,0,9.18,3H5a1.75,1.75,0,0,0-.4,0A2,2,0,0,0,3.16,4.23,1.93,1.93,0,0,0,3,5V19a2.05,2.05,0,0,0,.16.78,2.12,2.12,0,0,0,.43.64,2,2,0,0,0,1,.55A2.6,2.6,0,0,0,5,21H19a2,2,0,0,0,2-2V5A2,2,0,0,0,19,3Zm-7-.25a.75.75,0,1,1-.75.75A.76.76,0,0,1,12,2.75ZM19,19H5V5H19Z"/><rect class="cls-2" x="7" y="7" width="10" height="2"/><rect class="cls-2" x="7" y="11" width="10" height="2"/><rect class="cls-2" x="7" y="15" width="7.07" height="2"/></svg>
